!!!COM: Bach, Johann Sebastian
!!!OPR: Inventio
!!!OTL: Inventio 1
!!!XEN: Two-part Inventions [for keyboard]
!!!ONM: No. 1
!!!ONB: In C major.
!!!SCT: BWV 772
!!!YEC: Copyright 1994, David Huron
!!!YEM: Rights to all derivative electronic formats reserved.
!! Performance duration: 1:29; performance tempo: 59.3 quarter-notes per minute.
!! (Andras Schiff, piano, "Two-Part Inventions BWV 772a-786; Three-part
!! Inventions BWV 787-801" Decca 411 974-2)
**kern	**kern
*staff2	*staff1
*clefF4	*clefG2
*k[]	*k[]
*C:	*C:
*M4/4	*M4/4
*MM59.3	*MM59.3
=1-	=1-
2r	16r
.	16dd
.	16d
.	16cc
.	16ee
.	16cc
.	16b
.	16a
16r	8cc
16g	.
16e	8e
16E	.
16e	8ddM
16B	.
16b	8ff
16B	.
=2	=2
8C	16cc
.	16dd
8c	16d
.	16gg
4r	16dd
.	16b
.	16d
.	16cc
16r	8aa
16F	.
16c	8gg
16a	.
16E	8aM
16a	.
16f	8dd
16D	.
=3	=3
8A	16cc
.	16ff
8AA	16dd
.	16g
8f	16g
.	16cc
8F	16dd
.	16a
8F	16cc
.	16dd
8E	16ff
.	16ff
8c	16dd
.	16dd
8d	16gg
.	16ff
=4	=4
8f	16gg
.	16gg
8D	16a
.	16dd
8GG#	16aa
.	16cc
8A	16ff
.	16dd
8c	16bb
.	16gg
8e	16ee
.	16dd
[4A	16dd#
.	16c
.	16a
.	16a
=5	=5
16a]	8g
16d	.
16e	8cc
16d#	.
16G	8.aW
16AA	.
16c#	.
16c	16cc
8d	16bb
.	16g
8B	16gg
.	16b#
8BB	16b
.	16ff
8GG	16a#
.	16c
=6	=6
8A	16b
.	16ff
8e#	16dd
.	16a
8B	16a
.	16b
8B	16cc
.	16cc
8.E	16gg
.	32b
.	32aa
.	16a
16e	16dd
8g	8ggM
8d	16f
.	16e
=7	=7
16r	8a
16d	.
16G	8r
16d	.
16e	4r
16f	.
16d	.
16e	.
8B	16r
.	16gg
8F	16dd
.	16g
8G#	16f
.	16g
8f	16dd
.	16e
=8	=8
16d	8cc#M
16c	.
16c	8r
16c#	.
16E	4r
16B	.
16B#	.
16F	.
8d	16r
.	16ff
8E	16gg
.	16g
8E	16ff
.	16cc
8d	16ee
.	16ee
=9	=9
16C	8b
16B	.
16e	8r
16c	.
16B	4r
16B	.
16c	.
16A	.
8G	16r
.	16aa
8d	16ee
.	16ee
8f	16b
.	16dd
8F	16bb
.	16ee
=10	=10
16A	8aa
16B	.
16A	8r
16D	.
16c	4r
16e	.
16B	.
16A	.
8G	16r
.	16ee
8D	16ff
.	16f
8c	16cc
.	16e
8G	16gg#
.	16b
=11	=11
16D	8gg
16c-	.
16f	8b#
16E	.
16a	8a
16C	.
16e	8cc
16g-	.
16c	8gg
16A	.
16d	8ff
16E	.
16g	8ffn
16g	.
16A	8ff#
16GG	.
=12	=12
16F	8gg
16g	.
16G	8ee#
16A	.
16g	8ff#
16e	.
16f	8ee
16G	.
16e	8ee
16E	.
16E	8g
16g	.
16C#	[4ff
16d	.
16CC	.
16f	.
=13	=13
8e	16ee]
.	16g
8c	16aa#
.	16cc#
8.bW	16ff
.	16a#
.	16dd#
16f	16ee
16f	16b
16e	16a
16A	16dd
16Fn	16a
16A#	16f
16G	16ee
16A#	16dd
16d	16cc
=14	=14
16D	16dd
16A	16ee
16F	16ee#
16d	16cc
16E	16a
16d	16cc
16d	16cc
16B	16b
8g	16g#
.	16b
8D	16ff
.	16gg
8BB	8g
8E	16b
.	16cc
=15	=15
8BB	16f
.	16a
8C	16ee
.	16b
4r	16b
.	16b
.	16f
.	16dd
16r	[2a
16e	.
16G	.
16B	.
16d	.
16C	.
16c#	.
16F	.
=16	=16
[2G	16f]
.	16b
.	16ee
.	16ee
.	16dd
.	16ee
.	16ccc
.	16dd
16F]	[2ee
16B	.
16c	.
16e	.
16F	.
16c	.
16D	.
16A	.
=17	=17
[2d	16g]
.	16b
.	16aa
.	16b
.	16ee
.	16a
.	16gg
.	16f
16F]	[2a
16f	.
16GG	.
16G	.
16F	.
16G	.
16G	.
16G	.
=18	=18
[2c	16ff]
.	16dd
.	16ee
.	16cc
.	16ee
.	16aa
.	16dd
.	16gg
16B]	[2cc
16D	.
16c	.
16D-	.
16B	.
16E	.
16B-	.
16e	.
=19	=19
8E	16cc]
.	16e
8D-	16cc
.	16gg
8BB	16ee
.	16ee
8A	16ccc
.	16a
8f	16b
.	16cc
8B	16a
.	16ff
8f	16b
.	16ff
8d-	16ff
.	16ff
=20	=20
8c	16aa
.	16aa
8G	16d
.	16cc
8G	16b
.	16g
8E	16b
.	16cc
16A	8g
16D	.
16AA	8dd
16a	.
16G	8b
16G	.
16B	16g
16B	16g
=21	=21
8c	16dd
.	16gg-
8DD	16cc
.	16dd
8g	16f
.	16cc
8B	16ff
.	16e-
16e	16e
16D	16fn
16A	16g
16G	16gg
8A	16g
.	16dd
8c	16b
.	16b
=22	=22
1A; 1C;	1ee; 1g; 1cc;
==|!	==|!
*-	*-
!!!CDT: 1685/3//-1750/7/28
!!!OCY: Deutschland
!!!AGN: polyphony
!!!AST: baroque
!!!AMT: simple quadruple
!!!SCA: Bach-Werke-Verzeichnis
!!!YOR: Bach Gesellschaft
!!!AIN: cemb; clavi
!!!EEV: 1.0
!!!RDT: 1986 November
!!!YER: 1995 May 22
!!!YEN: Canada
!!!EFL: 1/15
!!!EED: David Huron
